X:1

T:Road to Cashel, The

M:C|

L:1/8

C:Charlie Lennon

R:reel

D:Charlie Lennon: Musical Memories

Z:Lorna LaVerne

K:Edor

"Em"(FE)ED E2-~E2|(FE)(3EEE"Bm" (dE)(Bd)|

"Em"(FE)ED E2(BA)|"D"(FDd)A "Bm"(Bd)(AB)|

"Em"(FE)ED E2-~E2|(FE)(3EEE"Bm" (dE)(Bd)|

"Em"(FE)(ED) E2(BA)|"D"(FDdD) "Bm"(Bd)(Ad)|

(BAB)d (fd)(ef)|"D"(dfab) afed|"G"((3B^cd g)e "D"~f2 (fe)|

"Bm"(dB)(Ad) "Em"(BE)(FA)|"Bm"(BAB)d (fd)(ef)|"D"(df)(ab) (afe)f|

"Bm"(bf)~f2 "F#m"(afe)f|"Bm"(bf)(af) "D"(edBA):|

"Em"(FE)(ED) E4||

           

ROAD TO CLONMEL, THE (Bóthar Chluain Meala). Irish, Reel. D Major. Standard tuning. AB. Source for notated version: collected in the mid-20th century from the playing of fiddler William Jones (County Fermanagh), who composed it, by Liam O’Donnolly (County Tyrone and Belfast) [Breathnach]. Breathnach (CRÉ IV), 1996; No. 180, pg. 83.

           

ROAD TO COLUMBUS. Bluegrass, Breakdown. USA. A Major. Standard tuning. AA'BB'. Composed by 'the Father of Bluegrass,' mandolinist Bill Monroe. Brody (Fiddler’s Fakebook), 1983; pg. 230. County 761, Kenny Baker‑ "Kenny Baker Plays Bill Monroe."

           

ROAD TO CORK. Irish, Jig. North Star NS0038, "The Village Green: Dance Music of Old Sturbridge Village."

                       

ROAD TO CULLENSTOWN, THE. Irish, Reel. G Major. Standard tuning. AA’BB’.

